X:1
T:Wolfgang Amadeus Mozart
T:Eine Kleine Nachtmusik
T:Public Domain
T:Public Domain
T:Public Domain
T:Public Domain
T:Public Domain
T:Public Domain
Z:Public Domain
%%score 1 ( 2 3 ) ( 4 5 )
L:1/8
Q:1/4=140
M:4/4
K:G
V:1 bass nm="Violoncello" snm="Vlc."
V:2 bass nm="Violoncello" snm="Vlc."
V:3 bass 
V:4 bass nm="Violoncello" snm="Vlc."
V:5 bass 
V:1
 [G,,G,]2 z D, G,2 z D, | G,D,G,B, D2 z2 | C2 z A, C2 z A, | CA,F,A, D,2 z2 | G, z G,3 (B,A,)G, | %5
 (G,F,) F,3 (A,C).F, | (A,G,) G,3 (B,A,)G, | (G,F,) F,3 (A,C).F, | %8
 .G,.G, (F,E,/F,/) .G,.G, (A,G,/A,/) | .B,.B, (CB,/C/) D2 z2 | (D4 E4) |{D} C2 C2{C} B,2 B,2 | %12
{B,} A,2 A,2 (G,F,).E,.F, | G, z A, z B, z z2 | (D4 E4) | (DC).C.C (CB,).B,.B, | %16
 (B,A,).A,.A, (G,F,E,F,) | G,4- G,(G,/F,/4G,/4 A,F,) | B,4- B,(B,/A,/4B,/4 CA,) | %19
 D,4 !//!E,2 !//!F,2 | !//!G,2 !//!A,2 !//!B,2 !//!^C2 | D3 A, (^C>A,) (C>A,) | %22
 D3 A, (^C>A,) (C>A,) | D D2 D2 D2 D- | D D2 D2 D2 D | ^CA,DA, CA,DA, | ^CA,A,A, A,2 z2 | %27
 (A,3 (3G,/F,/E,/ D,) z B, z | G, z E, z A, z z2 | (F,3 (3E,/D,/^C,/ B,,) z G, z | (F,4 E,2) z2 | %31
 z .A,.A,.A, .A,.A,.A,.A, | .A,.A,.A,.A, .A,.A,B,^C | (^CD) z B, (B,A,) z ^C, | D,2 z2 z4 | %35
 D,2 z A,, D,2 z A,, | D,A,,D,F, A,2 z2 | A,2 z F, A,2 z F, | A,F,_E,F, B,,2 z2 | %39
 z2 z G, (CB,A,G,) | (A,G,) z G, G,G,G,G, | (A,G,) z G, (CB,A,G,) | (A,^G,) z G, G,G,G,G, | %43
 (B,A,) z A, (C_B,A,G,) | (G,F,) z F, F,F,F,F, | (A,G,) z _E, (G,=F,E,D,) | (D,^C,) z C, C,C,C,C, | %47
 (E,D,) z (D,, E,,F,,G,,A,, | C,_B,,) z (F,, G,,A,,B,,^C, | E,D,) z D, E,F,G,A, | ^A,2 B,2 C2 ^C2 | %51
 .B,.B,(B,C) .A,.A,(A,B,) | .G,.G,(G,B,) (B,A,).G,.D, | [G,,G,]2 z D, G,2 z D, | G,D,G,B, D2 z2 | %55
 C2 z A, C2 z A, | CA,F,A, D,2 z2 | G,G,G,G, G,G,G,G, | A,A,A,A, (A,C)(F,A,) | G,G,G,G, G,G,G,G, | %60
 A,A,A,A, (A,C)(F,A,) | G,G,A,A, B,B,F,F, | G,G,A,A, B,2 z2 | z8 | (D,4 E,4) | C,2 C,2 D,2 D,2 | %66
 B,, z D, z G, z z2 | z8 | (D,4 E,4) | (B,,A,,).A,,.A,, (G,,F,,E,,F,,) | %70
 G,,G,,G,,G,, G,,G,,G,,G,, | G,,G,,G,,G,, G,,G,,G,,G,, | G,,G,G,G, G,G,G,G, | G,G,F,F, G,G,E,E, | %74
 !//!D,4 !//!D,4 | !//!D,4 !//!D,4 | !//!D,2 !//!E,2 !//!D,2 !//!E,2 | D, D,,D,,D,, D,,2 z2 | %78
 z4 z2 C, z | C, z A,, z D, z z2 | z2 (A,2 G,) z A, z | (B,4 A,2) z2 | (D3 (3C/B,/A,/ G,) z E z | %83
 C z A, z D2 z C | (CB,) z .C (CB,) z .C, | B,,B,,C,C, D,D,B,,B,, | A,,A,,B,,B,, C,C,A,,A,, | %87
 B,,B,,C,C, D,D,B,,B,, | A,,A,,B,,B,, C,C,A,,A,, | B,,2 z2 ([E,B,]4 | A,2) z2 ([D,A,]4 | %91
 G,).B,.C.D (CD/E/ D).C | .B,,.D,.G,.B, (B,A,).G,.F, | G,D,E,F, G,G, A,2 | B,F,G,A, B,B, C2 | %95
 DD ^D2 E2 z2 | (A,6 G,F,) | G,2 z2 z4 | E,2 z2 F,2 z2 | !//!D,4 !//!D,4 | !//!D,4 !//!D,4 | %101
 [B,,D,]2 z2 D,2 z2 | [D,B,]2 G,>G, G,2 z2 |] %103
V:2
 D,2 z D, G,2 z D, | G,D,G,B, D2 z2 | C2 z A, C2 z A, | CA,F,A, D,2 z2 | !//![B,,D,]4 !//!D,4 | %5
 !//![C,D,]4 !//![C,D,]4 | !//!D,4 !//!D,4 | !//![C,D,]4 !//![C,D,]4 | D,2 CC DD (CB,/A,/) | %9
 G,G,F,F, G,2 z2 | (B,4 C4) |{B,} A,2 A,2{A,} G,2 G,2 | E,2 E,2 C,2 E,2 | D, z F, z G, z z2 | %14
 (B,4 C4) | (B,A,).A,.A, (A,G,).G,.G, | (G,F,).F,.F, (E,D,C,D,) | G,8 | G,8 | !//!B,,4 !//!C,4 | %20
 !//!B,,2 !//!D,4 !//!G,2 | !//!F,4 !//!G,4 | !//!F,4 !//!G,4 | F, F,2 F,2 F,2 E,- | %24
 E, E,2 E,2 E,2 E, | E,2 F,2 E,2 F,2 | E,A,A,A, A,2 z2 | z4 z2 B, z | G, z E, z A, z z2 | %29
 z2 (E,2 D,) z E, z | (F,4 E,2) z2 | (A,3 (3G,/F,/E,/ D,) z B, z | G, z E, z A, z G, z | %33
 (G,F,) z .E, (E,F,) z G, | D,,2 z2 z4 | D,2 z A,, D,2 z A,, | D,A,,D,F, A,2 z2 | %37
 A,2 z F, A,2 z F, | A,F,_E,F, B,,2 z2 | E,E,=F,F, G,G,E,E, | D,D,E,E, =F,F,D,D, | %41
 E,E,=F,F, G,G,E,E, | D,D,E,E, =F,F,D,D, | C,C,D,D, E,E,C,C, | C,C,D,D, _E,E,C,C, | %45
 _B,,B,,A,,A,, B,,B,,A,A, | _B,B,A,A, B,B,A,G, | F,2 z2 z4 | z8 | z2 z D, E,F,G,A, | %50
 ^A,2 B,2 C2 ^C2 | D8- | D4 (F,3 E,/F,/) | D,2 z D, G,2 z D, | G,D,G,B, D2 z2 | C2 z A, C2 z A, | %56
 CA,F,A, D,2 z2 | [B,,G,] z G,3 (B,A,)G, | (G,F,) F,3 (A,C).F, | (A,G,) G,3 (B,A,)G, | %60
 (G,F,) F,3 (A,C).F, | .G,.G, (F,E,/F,/) .G,.G, (A,G,/A,/) | .B,.B, (CB,/C/) D2 z2 | (D4 E4) | %64
{D} C2 C2{C} B,2 B,2 |{B,} A,2 A,2 (G,F,).E,.F, | G, z A, z B, z z2 | (D4 E4) | %68
 (DC).C.C (CB,).B,.B, | (B,A,).A,.A, (G,F,E,F,) | G,4- G,(G,/F,/4G,/4 A,F,) | %71
 B,4- B,(B,/A,/4B,/4 CA,) | D,4 !//!E,2 !//!F,2 | !//!G,2 !//!A,2 !//!B,2 !//!^C2 | %74
 D3 A, (^C>A,) (C>A,) | D3 A, (^C>A,) (C>A,) | .D.A,.^C.A, .D.A,.C.A, | D D,D,D, D,2 z2 | %78
 z4 z2 A,, z | A, z =G, z F, z D, z | z2 (D,2 E,) z C, z | =D,2 (D3 ^C=CA,) | %82
 G, z A, z B, z ^G, z | A, z =G, z F, z D, z | E, z C, z D, z D, z | G,,G,,A,,A,, B,,B,,G,,G,, | %86
 F,,F,,G,,G,, A,,A,,F,,F,, | G,,G,,A,,A,, B,,B,,G,,G,, | F,,F,,G,,G,, A,,A,,F,,F,, | %89
 G,,G,B,A, ^G,E,F,G, | A,CA,=G, F,D,E,F, | .G,.G,.A,.B, CCCC | G,B,DD DDDC | %93
 G,,D,,E,,F,, G,,G,,A,,A,, | B,,F,,G,,A,, B,,B,,C,C, | D,D,_E,E, =E,2 z2 | (C,4 =D,4) | %97
 G,,2 z2 z4 | C,2 z2 D,2 z2 | G,,G,,G,,G,, G,,G,,G,,G,, | G,,G,,G,,G,, G,,G,,G,,G,, | %101
 G,,B,,D,G, B,G,DB, | G2 G,,>G,, G,,2 z2 |] %103
V:3
 x8 | x8 | x8 | x8 | x4 B,,4 | x8 | B,,4 B,,4 | x8 | x8 | x8 | x8 | x8 | x8 | x8 | x8 | x8 | x8 | %17
 x8 | x8 | x8 | x8 | x8 | x8 | x8 | x8 | x8 | x8 | x8 | x8 | x8 | x8 | x8 | x8 | x8 | x8 | x8 | %36
 x8 | x8 | x8 | x8 | x8 | x8 | x8 | x8 | x8 | x8 | x8 | x8 | x8 | x8 | x8 | x8 | x8 | x8 | x8 | %55
 x8 | x8 | x8 | x8 | x8 | x8 | x8 | x8 | x8 | x8 | x8 | x8 | x8 | x8 | x8 | x8 | x8 | x8 | x8 | %74
 x8 | x8 | x8 | x8 | x8 | x8 | x8 | x8 | x8 | x8 | x8 | x8 | x8 | x8 | x8 | x8 | x8 | x8 | x8 | %93
 x8 | x8 | x8 | x8 | x8 | x8 | x8 | x8 | x8 | x8 |] %103
V:4
 B,,2 z D, G,2 z D, | G,D,G,B, D2 z2 | C2 z A, C2 z A, | CA,F,A, D,2 z2 | G,G,G,G, G,G,G,G, | %5
 G,G,G,G, G,G,G,G, | G,G,G,G, G,G,G,G, | G,G,G,G, G,G,G,G, | G,G,A,A, B,B,F,F, | G,G,A,A, B,2 z2 | %10
 z8 | (D,4 E,4) | C,2 C,2 D,2 D,2 | B,, z D, z G, z z2 | z8 | (D,4 E,4) | %16
 (B,,A,,).A,,.A,, (G,,F,,E,,F,,) | G,,G,,G,,G,, G,,G,,G,,G,, | G,,G,,G,,G,, G,,G,,G,,G,, | %19
 G,,G,G,G, G,G,G,G, | G,G,F,F, G,G,E,E, | !//!D,4 !//!D,4 | !//!D,4 !//!D,4 | D,E,F,E, D,E,F,D, | %24
 G,A,B,A, G,A,B,^G, | A,A,A,A, A,A,A,A, | A,A,,A,,A,, A,,2 z2 | z4 z2 ^D, z | %28
 E, z D, z ^C, z A,, z | z2 (^A,,2 B,,) z =G,, z | =A,,2 (A,3 ^G,)=G,E, | D, z E, z F, z ^D, z | %32
 E, z D, z ^C, z A,, z | B,, z G, z A, z A,, z | D,2 z2 z4 | D,2 z A,, D,2 z A,, | %36
 D,A,,D,F, A,2 z2 | A,2 z F, A,2 z F, | A,F,_E,F, B,,2 z2 | C,C,D,D, E,E,C,C, | %40
 B,,B,,C,C, D,D,B,,B,, | C,C,D,D, E,E,C,C, | B,,B,,C,C, D,D,B,,B,, | A,,A,,B,,B,, C,C,A,,A,, | %44
 A,,A,,_B,,B,, C,C,A,,A,, | G,,G,,F,,F,, G,,G,,F,F, | G,G,F,F, G,G,,F,,G,, | A,,2 z2 z4 | z8 | %49
 z2 z D, E,F,G,A, | ^A,2 B,2 C2 ^C2 | .D.D(DE) .C.C(CD) | .B,.B,(B,D) (DC).B,.A, | %53
 B,,2 z D, G,2 z D, | G,D,G,B, D2 z2 | C2 z A, C2 z A, | CA,F,A, D,2 z2 | !//!D,4 !//!D,4 | %58
 !//![C,D,]4 !//![C,D,]4 | !//!D,4 !//!D,4 | !//![C,D,]4 !//![C,D,]4 | [B,,D,]2 CC DD (CB,/A,/) | %62
 G,G,F,F, G,2 z2 | (B,4 C4) |{B,} A,2 A,2{A,} G,2 G,2 | E,2 E,2 C,2 E,2 | D, z F, z G, z z2 | %67
 (B,4 C4) | (B,A,).A,.A, (A,G,).G,.G, | (G,F,).F,.F, (E,D,C,D,) | G,8 | G,8 | !//!B,,4 !//!C,4 | %73
 !//!B,,2 !//!D,4 !//!G,2 | !//!F,4 !//!G,4 | !//!F,4 !//!G,4 | !//!F,2 !//!G,2 !//!F,2 !//!G,2 | %77
 F, D,D,D, D,2 z2 | (D,3 (3C,/B,,/A,,/ G,,) z E, z | C, z A,, z D, z z2 | %80
 (B,3 (3A,/G,/F,/ E,) z C z | (B,4 A,2) z2 | z DDD DDDD | DDDD (DCA,F,) | %84
 (F,G,) z .E, (E,D,) z .F,, | G,,2 z .D, (G,F,E,D,) | (E,D,) z .D, .D,.D,.D,.D, | %87
 (E,D,) z .D, (G,F,E,D,) | (E,D,) z .D, .D,.D,.D,.D, | (E,D,) z2 E,3 (3(D,/C,/B,,/ | %90
 C,2) z2 D,3 (3(C,/B,,/A,,/ | B,,2) z2 (E,F,/G,/ F,).E, | .D,.G,.B,.D (DC).B,A, | %93
 G,D,E,F, G,G, (A,G,/A,/ | B,)F,G,A, B,B, CB,/C/ | DD ^D^C/D/ E2 z2 | (E,3 A,) (G,F,E,D,) | %97
 (DE)FG (DE)FG | A2 z2 D2 z2 | G,2 z D, B,,G,,B,,D, | G,D,G,B, D2 [A,,F,]2 | [B,,G,]2 z2 G,2 z2 | %102
 [D,,B,,G,]2 G,,>G,, G,,2 z2 |] %103
V:5
 x8 | x8 | x8 | x8 | x8 | x8 | x8 | x8 | x8 | x8 | x8 | x8 | x8 | x8 | x8 | x8 | x8 | x8 | x8 | %19
 x8 | x8 | x8 | x8 | x8 | x8 | x8 | x8 | x8 | x8 | x8 | x8 | x8 | x8 | x8 | x8 | x8 | x8 | x8 | %38
 x8 | x8 | x8 | x8 | x8 | x8 | x8 | x8 | x8 | x8 | x8 | x8 | x8 | x8 | x8 | x8 | x8 | x8 | x8 | %57
 B,,4 B,,4 | x8 | B,,4 B,,4 | x8 | x8 | x8 | x8 | x8 | x8 | x8 | x8 | x8 | x8 | x8 | x8 | x8 | x8 | %74
 x8 | x8 | x8 | x8 | x8 | x8 | x8 | x8 | x8 | x8 | x8 | x8 | x8 | x8 | x8 | x8 | x8 | x8 | x8 | %93
 x8 | x8 | x8 | x8 | x8 | x8 | x8 | x8 | x8 | x8 |] %103

